assets/ios/swift/Icons.xcassets/markerReadReceipts.imageset/markerReadReceipts.svg

<svg width="24" height="24" viewBox="0 0 24 24" fill="none" xmlns="http://www.w3.org/2000/svg">
<path d="M14.7071 10.7071C15.0976 10.3166 15.0976 9.68342 14.7071 9.29289C14.3166 8.90237 13.6834 8.90237 13.2929 9.29289L10 12.5858L8.70711 11.2929C8.31658 10.9024 7.68342 10.9024 7.29289 11.2929C6.90237 11.6834 6.90237 12.3166 7.29289 12.7071L9.29289 14.7071C9.68342 15.0976 10.3166 15.0976 10.7071 14.7071L14.7071 10.7071Z" fill="black"/>
<path d="M22.4 12.625C22.4667 12.425 22.5 12.2167 22.5 12C22.5 11.7833 22.4667 11.575 22.4 11.375C22.3333 11.175 22.2333 10.9833 22.1 10.8L17.6 4.8C17.4167 4.55 17.1833 4.35417 16.9 4.2125C16.6167 4.07083 16.3167 4 16 4H4C3.45 4 2.97917 4.19583 2.5875 4.5875C2.19583 4.97917 2 5.45 2 6V18C2 18.55 2.19583 19.0208 2.5875 19.4125C2.97917 19.8042 3.45 20 4 20H16C16.3167 20 16.6167 19.9292 16.9 19.7875C17.1833 19.6458 17.4167 19.45 17.6 19.2L22.1 13.2C22.2333 13.0167 22.3333 12.825 22.4 12.625ZM16 6L20.5 12L16 18H4V6H16Z" fill="black"/>
</svg>

<svg xmlns="http://www.w3.org/2000/svg" width="24" height="24" fill="black" viewBox="0 0 24 24">
  <path d="M14.707 10.707a1 1 0 0 0-1.414-1.414L10 12.586l-1.293-1.293a1 1 0 0 0-1.414 1.414l2 2a1 1 0 0 0 1.414 0l4-4Z"/>
  <path d="M22.4 12.625c.067-.2.1-.408.1-.625 0-.217-.033-.425-.1-.625a2.112 2.112 0 0 0-.3-.575l-4.5-6A1.986 1.986 0 0 0 16 4H4c-.55 0-1.02.196-1.413.588A1.926 1.926 0 0 0 2 6v12c0 .55.196 1.02.587 1.413.393.39.863.587 1.413.587h12a1.985 1.985 0 0 0 1.6-.8l4.5-6c.133-.183.233-.375.3-.575ZM16 6l4.5 6-4.5 6H4V6h12Z"/>
</svg>
